svg/icon/ric.svg

<svg xmlns="http://www.w3.org/2000/svg" xmlns:xlink="http://www.w3.org/1999/xlink" width="32" height="32" viewBox="0 0 32 32"><defs><linearGradient id="ric-c" x1="50%" x2="50%" y1="0%" y2="100%"><stop offset="0%" stop-color="#FFF" stop-opacity=".5"/><stop offset="100%" stop-opacity=".5"/></linearGradient><circle id="ric-b" cx="16" cy="15" r="15"/><filter id="ric-a" width="111.7%" height="111.7%" x="-5.8%" y="-4.2%" filterUnits="objectBoundingBox"><feOffset dy=".5" in="SourceAlpha" result="shadowOffsetOuter1"/><feGaussianBlur in="shadowOffsetOuter1" result="shadowBlurOuter1" stdDeviation=".5"/><feComposite in="shadowBlurOuter1" in2="SourceAlpha" operator="out" result="shadowBlurOuter1"/><feColorMatrix in="shadowBlurOuter1" values="0 0 0 0 0 0 0 0 0 0 0 0 0 0 0 0 0 0 0.199473505 0"/></filter><path id="ric-e" d="M10.1443414,19.0241935 C10.4438072,18.5691275 10.727685,18.1430249 10.9959749,17.7446237 L7.93240093,17.7446237 C7.88090585,17.7446237 7.83916084,17.7028786 7.83916084,17.6513836 L7.83916084,17.0152831 C7.83916084,16.963788 7.88090585,16.922043 7.93240093,16.922043 L11.5544175,16.922043 C13.4909441,14.0931395 14.4592075,12.9281484 14.4592075,12.8091398 C14.4592075,12.6263441 14.4190978,12.5349462 13.7599068,12.5349462 C12.4545455,12.5349462 10.3100233,11.6038753 10.3100233,9.06182796 C10.3100233,7.67927831 12.5468154,6 13.8531469,6 C14.4592075,6 14.5517668,6.25709816 14.2727273,6.27419355 C13.5268065,6.31989247 11.8951049,7.81026204 11.8951049,9.24462366 C11.8951049,10.2043011 12.7469223,11.8494624 14.6456876,11.8494624 C16.8866368,11.8494624 18.8020651,8.28494624 23.4568765,8.28494624 C26.2540793,8.28494624 27,10.4725591 27,11.0725806 C27,11.6726022 26.1266026,11.9865591 24.9487179,11.9865591 C23.7708333,11.9865591 23.7271726,9.8844086 21.3589744,9.8844086 C17.6413015,9.8844086 14.4745879,13.91034 12.9536806,16.922043 L15.5780886,16.922043 C15.6295837,16.922043 15.6713287,16.963788 15.6713287,17.0152831 L15.6713287,17.6513836 C15.6713287,17.7028786 15.6295837,17.7446237 15.5780886,17.7446237 L12.5674383,17.7446237 C12.3599696,18.2243868 12.2047898,18.6595926 12.1075572,19.0241935 L14.7389277,19.0241935 C14.7904228,19.0241935 14.8321678,19.0659386 14.8321678,19.1174336 L14.8321678,19.7535341 C14.8321678,19.8050292 14.7904228,19.8467742 14.7389277,19.8467742 L11.990236,19.8467742 C12.0386915,21.0132647 13.0171308,22.0643399 14.9255564,23 C11.4444939,23 9.004662,23 7.60606061,23 C8.33035275,21.8336018 8.9972334,20.7855004 9.60670257,19.8467742 L7.09324009,19.8467742 C7.04174501,19.8467742 7,19.8050292 7,19.7535341 L7,19.1174336 C7,19.0659386 7.04174501,19.0241935 7.09324009,19.0241935 L10.1443414,19.0241935 Z"/><filter id="ric-d" width="117.5%" height="120.6%" x="-8.8%" y="-7.4%" filterUnits="objectBoundingBox"><feOffset dy=".5" in="SourceAlpha" result="shadowOffsetOuter1"/><feGaussianBlur in="shadowOffsetOuter1" result="shadowBlurOuter1" stdDeviation=".5"/><feColorMatrix in="shadowBlurOuter1" values="0 0 0 0 0 0 0 0 0 0 0 0 0 0 0 0 0 0 0.204257246 0"/></filter></defs><g fill="none" fill-rule="evenodd"><use fill="#000" filter="url(#ric-a)" xlink:href="#ric-b"/><use fill="#60E4DD" xlink:href="#ric-b"/><use fill="url(#ric-c)" style="mix-blend-mode:soft-light" xlink:href="#ric-b"/><circle cx="16" cy="15" r="14.5" stroke="#000" stroke-opacity=".097"/><g><use fill="#000" filter="url(#ric-d)" xlink:href="#ric-e"/><use fill="#FFF" xlink:href="#ric-e"/></g></g></svg>

<svg xmlns="http://www.w3.org/2000/svg" xmlns:xlink="http://www.w3.org/1999/xlink" width="32" height="32" viewBox="0 0 32 32"><defs><linearGradient id="c" x1="50%" x2="50%" y1="0%" y2="100%"><stop offset="0%" stop-color="#FFF" stop-opacity=".5"/><stop offset="100%" stop-opacity=".5"/></linearGradient><circle id="b" cx="16" cy="15" r="15"/><filter id="a" width="111.7%" height="111.7%" x="-5.8%" y="-4.2%" filterUnits="objectBoundingBox"><feOffset dy=".5" in="SourceAlpha" result="shadowOffsetOuter1"/><feGaussianBlur in="shadowOffsetOuter1" result="shadowBlurOuter1" stdDeviation=".5"/><feComposite in="shadowBlurOuter1" in2="SourceAlpha" operator="out" result="shadowBlurOuter1"/><feColorMatrix in="shadowBlurOuter1" values="0 0 0 0 0 0 0 0 0 0 0 0 0 0 0 0 0 0 0.199473505 0"/></filter><path id="e" d="M10.144 19.024c.3-.455.584-.881.852-1.28H7.932a.093.093 0 0 1-.093-.093v-.636c0-.051.042-.093.093-.093h3.622c1.937-2.829 2.905-3.994 2.905-4.113 0-.183-.04-.274-.7-.274-1.304 0-3.449-.931-3.449-3.473C10.31 7.679 12.547 6 13.853 6c.606 0 .699.257.42.274-.746.046-2.378 1.536-2.378 2.97 0 .96.852 2.605 2.75 2.605 2.242 0 4.157-3.564 8.812-3.564 2.797 0 3.543 2.188 3.543 2.788 0 .6-.873.914-2.051.914-1.178 0-1.222-2.103-3.59-2.103-3.718 0-6.884 4.026-8.405 7.038h2.624c.052 0 .093.042.093.093v.636a.093.093 0 0 1-.093.094h-3.01c-.208.48-.363.915-.46 1.28h2.63c.052 0 .094.04.094.092v.637a.093.093 0 0 1-.093.093H11.99c.049 1.166 1.027 2.217 2.936 3.153h-7.32a185.324 185.324 0 0 1 2-3.153H7.094A.093.093 0 0 1 7 19.754v-.637c0-.051.042-.093.093-.093h3.051z"/><filter id="d" width="117.5%" height="120.6%" x="-8.8%" y="-7.4%" filterUnits="objectBoundingBox"><feOffset dy=".5" in="SourceAlpha" result="shadowOffsetOuter1"/><feGaussianBlur in="shadowOffsetOuter1" result="shadowBlurOuter1" stdDeviation=".5"/><feColorMatrix in="shadowBlurOuter1" values="0 0 0 0 0 0 0 0 0 0 0 0 0 0 0 0 0 0 0.204257246 0"/></filter></defs><g fill="none" fill-rule="evenodd"><use fill="#000" filter="url(#a)" xlink:href="#b"/><use fill="#60E4DD" xlink:href="#b"/><use fill="url(#c)" style="mix-blend-mode:soft-light" xlink:href="#b"/><circle cx="16" cy="15" r="14.5" stroke="#000" stroke-opacity=".097"/><use fill="#000" filter="url(#d)" xlink:href="#e"/><use fill="#FFF" xlink:href="#e"/></g></svg>
